X:127
T:St. James's Beauties. JJo8.127
B:J.Johnson Choice Collection Vol 8 1758
Z:vmp.Simon Wilson 2013 www.village-music-project.org.uk
M:C|
L:1/8
Q:1/2=100
K:G
|:gf|g2d2e2gf|g2d2e2gf|g2fe dcBA|B2G2G2gf|g2d2b2ag|f2d2a2ag|fgaf efge|f2d2d2:|
d^c|d2A2=c2BA|B2G2G2e^d|e2B2=d2^cB|c2A2A2a^g|a2e2g2fe|f2^c2d2cB|A2d2AGFE|
F2D2D2gf|g2d2e2gf|g2d2e2f2|g2fe dcBA|B2G2G2BA|B2G2A2Bc|B2G2A2Bc|B2g2ABcA|B2G2G2|]
